static/icons/cnlc_hosted.svg

<svg width="133" height="101" viewBox="0 0 133 101" fill="none" xmlns="http://www.w3.org/2000/svg">
<path d="M69.0539 80.9531V78.7843V47.9519V45.7831V40.6835V38.5146V31.7737H69.4056C71.2814 31.7737 72.8054 30.3083 72.8054 28.4912V25.5604C72.8054 23.7432 71.2814 22.2778 69.4056 22.2778H16.8265C14.9508 22.2778 13.4267 23.7432 13.4267 25.5604V28.4912C13.4267 30.3083 14.9508 31.7737 16.8265 31.7737H17.1782V45.7831C15.0094 45.7831 1 45.7831 1 45.7831V80.9531H69.0539ZM47.7175 78.7843H38.3388V66.8851C38.3388 66.7679 38.456 66.6506 38.5733 66.6506H47.483C47.6002 66.6506 47.7175 66.7679 47.7175 66.8851V78.7843Z" fill="#EBECE9"/>
<path d="M17.8816 32.4185V35.1735H65.4197V80.367H68.7022V32.4185H17.8816Z" fill="#C1C1C1"/>
<path d="M31.4806 47.4244H26.7327C26.0293 47.4244 25.4431 46.8382 25.4431 46.0762V41.3283C25.4431 40.6249 26.0879 39.9801 26.7913 39.9801H31.5392C32.2426 39.9801 32.8874 40.6249 32.8874 41.3283V46.0762C32.8288 46.8968 32.3013 47.4244 31.4806 47.4244Z" fill="#9FEFDE" stroke="#244583" stroke-width="1.5" stroke-miterlimit="10"/>
<path d="M45.4901 47.4244H40.7421C40.0387 47.4244 39.3939 46.7796 39.3939 46.0762V41.3283C39.3939 40.6249 40.0387 39.9801 40.7421 39.9801H45.4901C46.1935 39.9801 46.8382 40.6249 46.8382 41.3283V46.0762C46.8382 46.8968 46.1935 47.4244 45.4901 47.4244Z" fill="#9FEFDE" stroke="#244583" stroke-width="1.5" stroke-miterlimit="10"/>
<path d="M31.4807 61.1993H26.7327C26.0293 61.1993 25.3845 60.5545 25.3845 59.8511V55.1032C25.3845 54.3998 26.0293 53.755 26.7327 53.755H31.4807C32.1841 53.755 32.8288 54.3998 32.8288 55.1032V59.8511C32.8288 60.5545 32.3013 61.1993 31.4807 61.1993Z" fill="#9FEFDE" stroke="#244583" stroke-width="1.5" stroke-miterlimit="10"/>
<path d="M45.4901 61.1993H40.7421C40.0387 61.1993 39.3939 60.5545 39.3939 59.8511V55.1032C39.3939 54.3998 40.0387 53.755 40.7421 53.755H45.4901C46.1935 53.755 46.8382 54.3998 46.8382 55.1032V59.8511C46.8382 60.5545 46.1935 61.1993 45.4901 61.1993Z" fill="#9FEFDE" stroke="#244583" stroke-width="1.5" stroke-miterlimit="10"/>
<path d="M59.4407 47.4244H54.6928C53.9894 47.4244 53.3446 46.7796 53.3446 46.0762V41.3283C53.3446 40.6249 53.9894 39.9801 54.6928 39.9801H59.4407C60.1441 39.9801 60.7889 40.6249 60.7889 41.3283V46.0762C60.7889 46.8968 60.2028 47.4244 59.4407 47.4244Z" fill="#9FEFDE" stroke="#244583" stroke-width="1.5" stroke-miterlimit="10"/>
<path d="M59.4407 61.1993H54.6928C53.9894 61.1993 53.3446 60.5545 53.3446 59.8511V55.1032C53.3446 54.3998 53.9894 53.755 54.6928 53.755H59.4407C60.1441 53.755 60.7889 54.3998 60.7889 55.1032V59.8511C60.7889 60.5545 60.2028 61.1993 59.4407 61.1993Z" fill="#9FEFDE" stroke="#244583" stroke-width="1.5" stroke-miterlimit="10"/>
<path d="M11.551 61.1993H6.80302C6.09962 61.1993 5.45483 60.5545 5.45483 59.8511V55.1032C5.45483 54.3998 6.09962 53.755 6.80302 53.755H11.551C12.313 53.755 12.8991 54.3998 12.8991 55.1032V59.8511C12.8991 60.5545 12.313 61.1993 11.551 61.1993Z" fill="#9FEFDE" stroke="#244583" stroke-width="1.5" stroke-miterlimit="10"/>
<path d="M11.551 74.857H6.80302C6.09962 74.857 5.45483 74.2122 5.45483 73.5088V68.7608C5.45483 68.0574 6.09962 67.4126 6.80302 67.4126H11.551C12.313 67.4126 12.8991 68.0574 12.8991 68.7608V73.5088C12.8991 74.2708 12.313 74.857 11.551 74.857Z" fill="#9FEFDE" stroke="#244583" stroke-width="1.5" stroke-miterlimit="10"/>
<path d="M31.6565 74.857H25.5017V70.5193C25.5017 68.8194 26.9085 67.4126 28.6084 67.4126C30.3083 67.4126 31.7151 68.8194 31.7151 70.5193V74.857H31.6565Z" fill="#9FEFDE" stroke="#244583" stroke-width="1.5" stroke-miterlimit="10"/>
<path d="M48.8898 67.2368V80.66H37.2837V67.2368C37.2837 66.5334 37.9285 65.8886 38.6319 65.8886H47.5416C48.3036 65.83 48.8898 66.4162 48.8898 67.2368Z" fill="#9FEFDE" stroke="#244583" stroke-width="1.5" stroke-miterlimit="10"/>
<path d="M60.7889 74.857H54.5756V70.5193C54.5756 68.8194 55.9824 67.4126 57.6822 67.4126C59.3821 67.4126 60.7889 68.8194 60.7889 70.5193V74.857Z" fill="#9FEFDE" stroke="#244583" stroke-width="1.5" stroke-miterlimit="10"/>
<path d="M17.1196 31.7151H69.4057" stroke="#244583" stroke-width="1.5" stroke-miterlimit="10"/>
<path d="M17.1196 81.0117V45.6073" stroke="#244583" stroke-width="1.5" stroke-miterlimit="10"/>
<path d="M69.5815 22.8054H16.7679C15.5955 22.8054 14.5991 23.5088 14.1301 24.5639C14.5991 24.2708 15.068 24.095 15.6542 24.095H68.4678C70.0504 24.095 71.2814 25.3259 71.2814 26.9086V29.4291C71.2814 29.8394 71.2228 30.1325 71.0469 30.4842C71.8089 29.9566 72.3951 29.136 72.3951 28.1395V25.619C72.3951 24.095 71.1055 22.8054 69.5815 22.8054Z" fill="#C1C1C1"/>
<path d="M69.0539 80.8945V78.7257V47.8933V45.7245V40.6249V38.456V31.7151H69.4056C71.2814 31.7151 72.8054 30.2497 72.8054 28.4326V25.5018C72.8054 23.6847 71.2814 22.2192 69.4056 22.2192H16.8265C14.9508 22.2192 13.4267 23.6847 13.4267 25.5018V28.4326C13.4267 30.2497 14.9508 31.7151 16.8265 31.7151H17.1782V45.7245C15.0094 45.7245 1 45.7245 1 45.7245V80.8945H69.0539Z" stroke="#244583" stroke-width="1.5" stroke-miterlimit="10"/>
<path d="M112.372 77.143C112.372 77.143 108.386 80.4842 100.414 80.4842C94.4349 80.4842 88.4561 77.143 88.4561 77.143V49.9449C88.4561 49.9449 91.0938 45.3142 100.414 45.3142C111.668 45.3142 112.372 49.9449 112.372 49.9449V77.143Z" fill="#EBECE9"/>
<path d="M107.741 79.7808L112.43 77.7878V51.9379L107.741 53.9308V79.7808Z" fill="#DBD8DD"/>
<path d="M100.707 55.0445C94.435 55.0445 87.7527 53.286 87.7527 50.0035C87.7527 46.7796 94.3764 44.9625 100.707 44.9625C107.038 44.9625 113.661 46.721 113.661 50.0035C113.661 53.286 107.038 55.0445 100.707 55.0445ZM100.707 46.5451C93.5557 46.5451 89.2181 48.6553 89.2181 50.1207C89.2181 51.5862 93.6143 53.6964 100.707 53.6964C107.858 53.6964 112.196 51.5862 112.196 50.1207C112.254 48.5967 107.858 46.5451 100.707 46.5451Z" fill="#244583"/>
<path d="M100.707 61.2579C94.435 61.2579 87.7527 59.4994 87.7527 56.2169V50.0621C87.7527 49.6518 88.1044 49.3587 88.4561 49.3587C88.8664 49.3587 89.2181 49.7104 89.2181 50.0621V56.2169C89.2181 57.6823 93.6143 59.7925 100.707 59.7925C107.858 59.7925 112.196 57.6823 112.196 56.2169V50.0621C112.196 49.6518 112.548 49.3587 112.899 49.3587C113.31 49.3587 113.603 49.7104 113.603 50.0621V56.2169C113.661 59.4994 107.038 61.2579 100.707 61.2579Z" fill="#244583"/>
<path d="M100.707 67.823C94.435 67.823 87.7527 66.0645 87.7527 62.782V56.6272C87.7527 56.2169 88.1044 55.9238 88.4561 55.9238C88.8664 55.9238 89.2181 56.2755 89.2181 56.6272V62.8406C89.2181 64.306 93.6143 66.4162 100.707 66.4162C107.858 66.4162 112.196 64.306 112.196 62.8406V56.6272C112.196 56.2169 112.548 55.9238 112.899 55.9238C113.31 55.9238 113.603 56.2755 113.603 56.6272V62.8406C113.661 66.0645 107.038 67.823 100.707 67.823Z" fill="#244583"/>
<path d="M100.707 74.4467C94.435 74.4467 87.7527 72.6882 87.7527 69.4056V63.1922C87.7527 62.7819 88.1044 62.4888 88.4561 62.4888C88.8664 62.4888 89.2181 62.8405 89.2181 63.1922V69.4056C89.2181 70.871 93.6143 72.9812 100.707 72.9812C107.858 72.9812 112.196 70.871 112.196 69.4056V63.1922C112.196 62.7819 112.548 62.4888 112.899 62.4888C113.31 62.4888 113.603 62.8405 113.603 63.1922V69.4056C113.661 72.6882 107.038 74.4467 100.707 74.4467Z" fill="#244583"/>
<path d="M100.707 81.0117C94.435 81.0117 87.7527 79.2532 87.7527 75.9707V69.7573C87.7527 69.347 88.1044 69.0539 88.4561 69.0539C88.8664 69.0539 89.2181 69.4056 89.2181 69.7573V75.9707C89.2181 77.4361 93.6143 79.5463 100.707 79.5463C107.858 79.5463 112.196 77.4361 112.196 75.9707V69.7573C112.196 69.347 112.548 69.0539 112.899 69.0539C113.31 69.0539 113.603 69.4056 113.603 69.7573V75.9707C113.661 79.2532 107.038 81.0117 100.707 81.0117Z" fill="#244583"/>
<path d="M112.372 63.8956C112.372 63.8956 108.386 67.2368 100.414 67.2368C94.4349 67.2368 88.4561 63.8956 88.4561 63.8956V36.6975C88.4561 36.6975 91.0938 32.0668 100.414 32.0668C111.668 32.0668 112.372 36.6975 112.372 36.6975V63.8956Z" fill="#EBECE9"/>
<path d="M107.741 66.5334L112.43 64.5404V38.6905L107.741 40.6834V66.5334Z" fill="#C1C1C1"/>
<path d="M100.707 41.7972C94.435 41.7972 87.7527 40.0387 87.7527 36.7562C87.7527 33.5322 94.3764 31.7151 100.707 31.7151C107.038 31.7151 113.661 33.4736 113.661 36.7562C113.661 40.0387 107.038 41.7972 100.707 41.7972ZM100.707 33.2392C93.5557 33.2392 89.2181 35.3494 89.2181 36.8148C89.2181 38.2802 93.6143 40.3904 100.707 40.3904C107.858 40.3904 112.196 38.2802 112.196 36.8148C112.254 35.3494 107.858 33.2392 100.707 33.2392Z" fill="#244583"/>
<path d="M100.707 48.0105C94.435 48.0105 87.7527 46.252 87.7527 42.9695V36.8148C87.7527 36.4044 88.1044 36.1114 88.4561 36.1114C88.8664 36.1114 89.2181 36.4631 89.2181 36.8148V43.0281C89.2181 44.4935 93.6143 46.6037 100.707 46.6037C107.858 46.6037 112.196 44.4935 112.196 43.0281V36.8148C112.196 36.4044 112.548 36.1114 112.899 36.1114C113.31 36.1114 113.603 36.4631 113.603 36.8148V43.0281C113.661 46.252 107.038 48.0105 100.707 48.0105Z" fill="#244583"/>
<path d="M100.707 54.5756C94.435 54.5756 87.7527 52.8171 87.7527 49.5346V43.3798C87.7527 42.9695 88.1044 42.6764 88.4561 42.6764C88.8664 42.6764 89.2181 43.0281 89.2181 43.3798V49.5932C89.2181 51.0586 93.6143 53.1688 100.707 53.1688C107.858 53.1688 112.196 51.0586 112.196 49.5932V43.3798C112.196 42.9695 112.548 42.6764 112.899 42.6764C113.31 42.6764 113.603 43.0281 113.603 43.3798V49.5932C113.661 52.8757 107.038 54.5756 100.707 54.5756Z" fill="#244583"/>
<path d="M100.707 61.1993C94.435 61.1993 87.7527 59.4408 87.7527 56.1582V50.0035C87.7527 49.5932 88.1044 49.3001 88.4561 49.3001C88.8664 49.3001 89.2181 49.6518 89.2181 50.0035V56.2169C89.2181 57.6823 93.6143 59.7925 100.707 59.7925C107.858 59.7925 112.196 57.6823 112.196 56.2169V50.0035C112.196 49.5932 112.548 49.3001 112.899 49.3001C113.31 49.3001 113.603 49.6518 113.603 50.0035V56.2169C113.661 59.4408 107.038 61.1993 100.707 61.1993Z" fill="#244583"/>
<path d="M100.707 67.7644C94.435 67.7644 87.7527 66.0059 87.7527 62.7233V56.5686C87.7527 56.1583 88.1044 55.8652 88.4561 55.8652C88.8664 55.8652 89.2181 56.2169 89.2181 56.5686V62.782C89.2181 64.2474 93.6143 66.3576 100.707 66.3576C107.858 66.3576 112.196 64.2474 112.196 62.782V56.5686C112.196 56.1583 112.548 55.8652 112.899 55.8652C113.31 55.8652 113.603 56.2169 113.603 56.5686V62.782C113.661 66.0059 107.038 67.7644 100.707 67.7644Z" fill="#244583"/>
<path d="M131.598 77.143C131.598 77.143 127.612 80.4842 119.64 80.4842C113.661 80.4842 107.682 77.143 107.682 77.143V49.9449C107.682 49.9449 110.32 45.3142 119.64 45.3142C130.894 45.3142 131.598 49.9449 131.598 49.9449V77.143Z" fill="#EBECE9"/>
<path d="M126.967 79.7808L131.598 77.7878V51.9379L126.967 53.9308V79.7808Z" fill="#C1C1C1"/>
<path d="M119.992 55.0445C113.72 55.0445 107.037 53.286 107.037 50.0035C107.037 46.7796 113.661 44.9625 119.992 44.9625C126.322 44.9625 132.946 46.721 132.946 50.0035C132.946 53.286 126.264 55.0445 119.992 55.0445ZM119.992 46.5451C112.841 46.5451 108.503 48.6553 108.503 50.1207C108.503 51.5862 112.899 53.6964 119.992 53.6964C127.084 53.6964 131.481 51.5862 131.481 50.1207C131.481 48.5967 127.084 46.5451 119.992 46.5451Z" fill="#244583"/>
<path d="M119.992 61.2579C113.72 61.2579 107.037 59.4994 107.037 56.2169V50.0621C107.037 49.6518 107.389 49.3587 107.741 49.3587C108.151 49.3587 108.444 49.7104 108.444 50.0621V56.2169C108.444 57.6823 112.841 59.7925 119.933 59.7925C127.026 59.7925 131.422 57.6823 131.422 56.2169V50.0621C131.422 49.6518 131.774 49.3587 132.125 49.3587C132.536 49.3587 132.829 49.7104 132.829 50.0621V56.2169C132.946 59.4994 126.264 61.2579 119.992 61.2579Z" fill="#244583"/>
<path d="M119.992 67.823C113.72 67.823 107.037 66.0645 107.037 62.782V56.6272C107.037 56.2169 107.389 55.9238 107.741 55.9238C108.151 55.9238 108.444 56.2755 108.444 56.6272V62.8406C108.444 64.306 112.841 66.4162 119.933 66.4162C127.026 66.4162 131.422 64.306 131.422 62.8406V56.6272C131.422 56.2169 131.774 55.9238 132.125 55.9238C132.536 55.9238 132.829 56.2755 132.829 56.6272V62.8406C132.946 66.0645 126.264 67.823 119.992 67.823Z" fill="#244583"/>
<path d="M119.992 74.4467C113.72 74.4467 107.037 72.6882 107.037 69.4056V63.1922C107.037 62.7819 107.389 62.4888 107.741 62.4888C108.151 62.4888 108.444 62.8405 108.444 63.1922V69.4056C108.444 70.871 112.841 72.9812 119.933 72.9812C127.026 72.9812 131.422 70.871 131.422 69.4056V63.1922C131.422 62.7819 131.774 62.4888 132.125 62.4888C132.536 62.4888 132.829 62.8405 132.829 63.1922V69.4056C132.946 72.6882 126.264 74.4467 119.992 74.4467Z" fill="#244583"/>
<path d="M119.992 81.0117C113.72 81.0117 107.037 79.2532 107.037 75.9707V69.7573C107.037 69.347 107.389 69.0539 107.741 69.0539C108.151 69.0539 108.444 69.4056 108.444 69.7573V75.9707C108.444 77.4361 112.841 79.5463 119.933 79.5463C127.026 79.5463 131.422 77.4361 131.422 75.9707V69.7573C131.422 69.347 131.774 69.0539 132.125 69.0539C132.536 69.0539 132.829 69.4056 132.829 69.7573V75.9707C132.946 79.2532 126.264 81.0117 119.992 81.0117Z" fill="#244583"/>
<path d="M102.29 90.5662L107.506 85.408L112.547 90.449" stroke="#244583" stroke-width="1.5" stroke-miterlimit="10" stroke-linecap="round" stroke-linejoin="round"/>
<path d="M32.1255 90.5662L37.3424 85.408L42.3834 90.449" stroke="#244583" stroke-width="1.5" stroke-miterlimit="10" stroke-linecap="round" stroke-linejoin="round"/>
<path d="M37.2837 85.7597V94.9039C37.2837 97.6002 39.4525 99.8277 42.2075 99.8277H102.583C105.279 99.8277 107.506 97.6589 107.506 94.9039V85.7597" stroke="#244583" stroke-width="1.5" stroke-miterlimit="10"/>
<path d="M42.442 13.4268L37.1665 18.585L32.1255 13.544" stroke="#244583" stroke-width="1.5" stroke-miterlimit="10" stroke-linecap="round" stroke-linejoin="round"/>
<path d="M112.606 23.3916L107.389 28.5498L102.348 23.5088" stroke="#244583" stroke-width="1.5" stroke-miterlimit="10" stroke-linecap="round" stroke-linejoin="round"/>
<path d="M107.448 28.2567V9.14771C107.448 6.45134 105.279 4.22391 102.524 4.22391H42.1489C39.4525 4.22391 37.2251 6.39272 37.2251 9.14771V18.2919" stroke="#244583" stroke-width="1.5" stroke-miterlimit="10"/>
<path d="M79.0187 1H65.1852V17.823H79.0187V1Z" fill="white"/>
<rect x="67" y="8" width="10" height="9" fill="#FED19A"/>
<path d="M75.326 17.354H69.1712C67.7058 17.354 66.4749 16.1817 66.4749 14.6577V8.79599C66.4749 8.03397 67.1196 7.38919 67.8817 7.38919H76.6155C77.3776 7.38919 78.0223 8.03397 78.0223 8.79599V14.7163C77.9637 16.1817 76.7914 17.354 75.326 17.354ZM67.823 7.62366C67.1783 7.62366 66.7093 8.15121 66.6507 8.79599V14.7163C66.6507 16.0645 67.7058 17.1196 69.054 17.1196H75.2087C76.5569 17.1196 77.612 16.0645 77.612 14.7163V8.79599C77.612 8.15121 77.0845 7.68227 76.4397 7.62366H67.823Z" stroke="#244583" stroke-width="1.5" stroke-miterlimit="10"/>
<path d="M75.9706 7.62368C75.912 7.62368 75.8534 7.56506 75.8534 7.50645V4.81008C75.8534 2.81712 74.2121 1.17585 72.2192 1.17585C70.2262 1.17585 68.5849 2.81712 68.5849 4.81008V7.50645C68.5849 7.56506 68.5263 7.62368 68.4677 7.62368C68.4091 7.62368 68.3505 7.56506 68.3505 7.50645V4.81008C68.3505 2.64127 70.109 1 72.1605 1C74.2707 1 75.9706 2.7585 75.9706 4.81008V7.50645C76.0879 7.56506 76.0292 7.62368 75.9706 7.62368Z" stroke="#244583" stroke-width="1.5" stroke-miterlimit="10"/>
</svg>

<svg xmlns="http://www.w3.org/2000/svg" xmlns:xlink="http://www.w3.org/1999/xlink" width="133" height="101" fill="none" xmlns:v="https://vecta.io/nano"><style><![CDATA[.B{stroke:#244583}.C{stroke-width:1.5}.D{stroke-miterlimit:10}.E{fill:#ebece9}.F{fill:#c1c1c1}.G{fill:#244583}.H{stroke-linecap:round}.I{stroke-linejoin:round}]]></style><path d="M69.054 80.953v-2.169-30.832-2.169-5.1-2.169-6.741h.352c1.876 0 3.4-1.465 3.4-3.283V25.56c0-1.817-1.524-3.283-3.4-3.283H16.827c-1.876 0-3.4 1.465-3.4 3.283v2.931c0 1.817 1.524 3.283 3.4 3.283h.352v14.009H1v35.17h68.054zm-21.336-2.169h-9.379V66.885c0-.117.117-.234.235-.234h8.91c.117 0 .235.117.235.234v11.899z" class="E"/><path d="M17.882 32.419v2.755H65.42v45.194h3.282V32.419H17.882z" class="F"/><path d="M31.481 47.424h-4.748c-.703 0-1.29-.586-1.29-1.348v-4.748c0-.703.645-1.348 1.348-1.348h4.748c.703 0 1.348.645 1.348 1.348v4.748c-.059.821-.586 1.348-1.407 1.348zm14.009 0h-4.748c-.703 0-1.348-.645-1.348-1.348v-4.748c0-.703.645-1.348 1.348-1.348h4.748c.703 0 1.348.645 1.348 1.348v4.748c0 .821-.645 1.348-1.348 1.348zM31.481 61.199h-4.748c-.703 0-1.348-.645-1.348-1.348v-4.748c0-.703.645-1.348 1.348-1.348h4.748c.703 0 1.348.645 1.348 1.348v4.748c0 .703-.528 1.348-1.348 1.348zm14.009 0h-4.748c-.703 0-1.348-.645-1.348-1.348v-4.748c0-.703.645-1.348 1.348-1.348h4.748c.703 0 1.348.645 1.348 1.348v4.748c0 .703-.645 1.348-1.348 1.348zm13.951-13.775h-4.748c-.703 0-1.348-.645-1.348-1.348v-4.748c0-.703.645-1.348 1.348-1.348h4.748c.703 0 1.348.645 1.348 1.348v4.748c0 .821-.586 1.348-1.348 1.348zm0 13.775h-4.748c-.703 0-1.348-.645-1.348-1.348v-4.748c0-.703.645-1.348 1.348-1.348h4.748c.703 0 1.348.645 1.348 1.348v4.748c0 .703-.586 1.348-1.348 1.348zm-47.89 0H6.803c-.703 0-1.348-.645-1.348-1.348v-4.748c0-.703.645-1.348 1.348-1.348h4.748c.762 0 1.348.645 1.348 1.348v4.748c0 .703-.586 1.348-1.348 1.348zm0 13.658H6.803c-.703 0-1.348-.645-1.348-1.348v-4.748c0-.703.645-1.348 1.348-1.348h4.748c.762 0 1.348.645 1.348 1.348v4.748c0 .762-.586 1.348-1.348 1.348zm20.106 0h-6.155v-4.338a3.13 3.13 0 0 1 3.107-3.107 3.13 3.13 0 0 1 3.107 3.107v4.338h-.059zm17.233-7.62V80.66H37.284V67.237c0-.703.645-1.348 1.348-1.348h8.91c.762-.059 1.348.528 1.348 1.348zm11.899 7.62h-6.213v-4.338a3.13 3.13 0 0 1 3.107-3.107 3.13 3.13 0 0 1 3.107 3.107v4.338z" fill="#9fefde" class="B C D"/><path d="M17.12 31.715h52.286M17.12 81.012V45.607" class="B C D"/><path d="M69.582 22.805H16.768c-1.172 0-2.169.703-2.638 1.759.469-.293.938-.469 1.524-.469h52.814c1.583 0 2.814 1.231 2.814 2.814v2.52c0 .41-.059.703-.235 1.055.762-.528 1.348-1.348 1.348-2.345v-2.521c0-1.524-1.29-2.814-2.814-2.814z" class="F"/><path d="M69.054 80.895v-2.169-30.832-2.169-5.1-2.169-6.741h.352c1.876 0 3.4-1.465 3.4-3.282v-2.931c0-1.817-1.524-3.283-3.4-3.283H16.827c-1.876 0-3.4 1.465-3.4 3.283v2.931c0 1.817 1.524 3.282 3.4 3.282h.352v14.009H1v35.17h68.054z" class="B C D"/><use xlink:href="#B" class="E"/><path d="M107.741 79.781l4.689-1.993v-25.85l-4.689 1.993v25.85z" fill="#dbd8dd"/><g class="G"><path d="M100.707 55.045c-6.272 0-12.954-1.758-12.954-5.041 0-3.224 6.624-5.041 12.954-5.041s12.954 1.758 12.954 5.041-6.623 5.041-12.954 5.041zm0-8.499c-7.151 0-11.489 2.11-11.489 3.576s4.396 3.576 11.489 3.576c7.151 0 11.489-2.11 11.489-3.576.058-1.524-4.338-3.576-11.489-3.576z"/><path d="M100.707 61.258c-6.272 0-12.954-1.758-12.954-5.041v-6.155c0-.41.352-.703.703-.703.41 0 .762.352.762.703v6.155c0 1.465 4.396 3.576 11.489 3.576 7.151 0 11.489-2.11 11.489-3.576v-6.155c0-.41.352-.703.703-.703.411 0 .704.352.704.703v6.155c.058 3.282-6.565 5.041-12.896 5.041z"/><use xlink:href="#C"/><path d="M100.707 74.447c-6.272 0-12.954-1.759-12.954-5.041v-6.213c0-.41.352-.703.703-.703.41 0 .762.352.762.703v6.213c0 1.465 4.396 3.576 11.489 3.576 7.151 0 11.489-2.11 11.489-3.576v-6.213c0-.41.352-.703.703-.703.411 0 .704.352.704.703v6.213c.058 3.283-6.565 5.041-12.896 5.041z"/><path d="M100.707 81.012c-6.272 0-12.954-1.758-12.954-5.041v-6.213c0-.41.352-.703.703-.703.41 0 .762.352.762.703v6.213c0 1.465 4.396 3.576 11.489 3.576 7.151 0 11.489-2.11 11.489-3.576v-6.213c0-.41.352-.703.703-.703.411 0 .704.352.704.703v6.213c.058 3.283-6.565 5.041-12.896 5.041z"/></g><path d="M112.372 63.896s-3.986 3.341-11.958 3.341c-5.979 0-11.958-3.341-11.958-3.341V36.698s2.638-4.631 11.958-4.631c11.254 0 11.958 4.631 11.958 4.631v27.198z" class="E"/><path d="M107.741 66.533l4.689-1.993v-25.85l-4.689 1.993v25.85z" class="F"/><g class="G"><path d="M100.707 41.797c-6.272 0-12.954-1.758-12.954-5.041 0-3.224 6.624-5.041 12.954-5.041s12.954 1.758 12.954 5.041-6.623 5.041-12.954 5.041zm0-8.558c-7.151 0-11.489 2.11-11.489 3.576s4.396 3.576 11.489 3.576c7.151 0 11.489-2.11 11.489-3.576.058-1.465-4.338-3.576-11.489-3.576z"/><use xlink:href="#C" y="-19.812"/><path d="M100.707 54.576c-6.272 0-12.954-1.758-12.954-5.041V43.38c0-.41.352-.703.703-.703.41 0 .762.352.762.703v6.213c0 1.465 4.396 3.576 11.489 3.576 7.151 0 11.489-2.11 11.489-3.576V43.38c0-.41.352-.703.703-.703.411 0 .704.352.704.703v6.213c.058 3.282-6.565 4.982-12.896 4.982z"/><use xlink:href="#C" y="-6.624"/><use xlink:href="#C" y="-0.059"/></g><use xlink:href="#B" x="19.226" class="E"/><path d="M126.967 79.781l4.631-1.993v-25.85l-4.631 1.993v25.85z" class="F"/><g class="G"><path d="M119.992 55.045c-6.272 0-12.955-1.758-12.955-5.041 0-3.224 6.624-5.041 12.955-5.041s12.954 1.758 12.954 5.041-6.682 5.041-12.954 5.041zm0-8.499c-7.151 0-11.489 2.11-11.489 3.576s4.396 3.576 11.489 3.576 11.489-2.11 11.489-3.576c0-1.524-4.397-3.576-11.489-3.576z"/><path d="M119.992 61.258c-6.272 0-12.955-1.758-12.955-5.041v-6.155c0-.41.352-.703.704-.703.41 0 .703.352.703.703v6.155c0 1.465 4.397 3.576 11.489 3.576s11.489-2.11 11.489-3.576v-6.155c0-.41.352-.703.703-.703.411 0 .704.352.704.703v6.155c.117 3.282-6.565 5.041-12.837 5.041z"/><path d="M119.992 67.823c-6.272 0-12.955-1.758-12.955-5.041v-6.155c0-.41.352-.703.704-.703.41 0 .703.352.703.703v6.213c0 1.465 4.397 3.576 11.489 3.576s11.489-2.11 11.489-3.576v-6.213c0-.41.352-.703.703-.703.411 0 .704.352.704.703v6.213c.117 3.224-6.565 4.982-12.837 4.982z"/><path d="M119.992 74.447c-6.272 0-12.955-1.759-12.955-5.041v-6.213c0-.41.352-.703.704-.703.41 0 .703.352.703.703v6.213c0 1.465 4.397 3.576 11.489 3.576s11.489-2.11 11.489-3.576v-6.213c0-.41.352-.703.703-.703.411 0 .704.352.704.703v6.213c.117 3.283-6.565 5.041-12.837 5.041z"/><path d="M119.992 81.012c-6.272 0-12.955-1.758-12.955-5.041v-6.213c0-.41.352-.703.704-.703.41 0 .703.352.703.703v6.213c0 1.465 4.397 3.576 11.489 3.576s11.489-2.11 11.489-3.576v-6.213c0-.41.352-.703.703-.703.411 0 .704.352.704.703v6.213c.117 3.283-6.565 5.041-12.837 5.041z"/></g><g class="B C D"><path d="M102.29 90.566l5.216-5.158 5.041 5.041m-80.421.117l5.217-5.158 5.041 5.041" class="H I"/><path d="M37.284 85.76v9.144c0 2.696 2.169 4.924 4.924 4.924h60.375c2.696 0 4.923-2.169 4.923-4.924V85.76"/><path d="M42.442 13.427l-5.276 5.158-5.041-5.041m80.481 9.848l-5.217 5.158-5.041-5.041" class="H I"/><path d="M107.448 28.257V9.148c0-2.696-2.169-4.924-4.924-4.924H42.149c-2.696 0-4.924 2.169-4.924 4.924v9.144"/></g><path d="M79.019 1H65.185v16.823h13.834V1z" fill="#fff"/><path fill="#fed19a" d="M67 8h10v9H67z"/><g class="B C D"><path d="M75.326 17.354h-6.155a2.69 2.69 0 0 1-2.696-2.696V8.796a1.43 1.43 0 0 1 1.407-1.407h8.734a1.43 1.43 0 0 1 1.407 1.407v5.92c-.059 1.465-1.231 2.638-2.696 2.638zm-7.503-9.73c-.645 0-1.114.528-1.172 1.172v5.92c0 1.348 1.055 2.403 2.403 2.403h6.155c1.348 0 2.403-1.055 2.403-2.403v-5.92c0-.645-.527-1.114-1.172-1.172h-8.617z"/><path d="M75.971 7.624c-.059 0-.117-.059-.117-.117V4.81c0-1.993-1.641-3.634-3.634-3.634s-3.634 1.641-3.634 3.634v2.696c0 .059-.059.117-.117.117s-.117-.059-.117-.117V4.81c0-2.169 1.758-3.81 3.81-3.81 2.11 0 3.81 1.759 3.81 3.81v2.696c.117.059.059.117 0 .117z"/></g><defs ><path id="B" d="M112.372 77.143s-3.986 3.341-11.958 3.341c-5.979 0-11.958-3.341-11.958-3.341V49.945s2.638-4.631 11.958-4.631c11.254 0 11.958 4.631 11.958 4.631v27.198z"/><path id="C" d="M100.707 67.823c-6.272 0-12.954-1.758-12.954-5.041v-6.155c0-.41.352-.703.703-.703.41 0 .762.352.762.703v6.213c0 1.465 4.396 3.576 11.489 3.576 7.151 0 11.489-2.11 11.489-3.576v-6.213c0-.41.352-.703.703-.703.411 0 .704.352.704.703v6.213c.058 3.224-6.565 4.982-12.896 4.982z"/></defs></svg>
